X:66
T:Grania's Welcome Home part 3 (r)
B:NFID.086-2
066gran_wh3
S:JD
Z:Robinson/Black
N:Note extra measure in repeat of Part 2. [BB]
L:1/8
M:C
R:reel % A-B-A
Q:360
K:A=G
A2ed|:cdBc ABcd|eaec eaed|cdBc A2Bc|1 ~d2 dc dfed:|\
[2 ~d2 dc d2eg||
fdfa ecAc|e^def ecAg|fdfa ecAc|~d2 dc d2eg|
[1 fdfa ecAc|e^def ecAg|fdfg aece|dcde (3fga ed:|
[2 fdfa ecAc|e^def e^gfg|aece fdBA|^GABc dfed|ceBe A2HA,2|]

%%%

